AllWriteMVC/public/img/logo.svg

<svg width="95" height="60" viewBox="0 0 95 60" fill="none" xmlns="http://www.w3.org/2000/svg">
<path d="M19.66 26.15C18.7 26.15 17.75 25.89 16.81 25.37C15.87 24.83 15.12 23.79 14.56 22.25L13.81 20.3H5.41L3.01 26H1.66L10.06 6.2H10.96L17.56 22.25C18.06 23.41 18.53 24.21 18.97 24.65C19.41 25.07 20.04 25.32 20.86 25.4V26C20.5 26.1 20.1 26.15 19.66 26.15ZM13.21 19.1L9.61 10.4L5.86 19.1H13.21ZM22.323 9.8C22.323 8.78 22.183 8.03 21.903 7.55C21.623 7.05 21.063 6.8 20.223 6.8H19.623V6.2H22.323C23.063 6.2 23.613 6.3 23.973 6.5C24.353 6.68 24.623 7.02 24.783 7.52C24.943 8.02 25.023 8.78 25.023 9.8V26H22.323V9.8ZM29.5886 9.8C29.5886 8.78 29.4486 8.03 29.1686 7.55C28.8886 7.05 28.3286 6.8 27.4886 6.8H26.8886V6.2H29.5886C30.3286 6.2 30.8786 6.3 31.2386 6.5C31.6186 6.68 31.8886 7.02 32.0486 7.52C32.2086 8.02 32.2886 8.78 32.2886 9.8V26H29.5886V9.8ZM3.34 39.71C2.94 38.55 2.51 37.76 2.05 37.34C1.61 36.9 0.94 36.64 0.04 36.56V35.96C0.14 35.96 0.29 35.95 0.49 35.93C0.67 35.91 0.86 35.9 1.06 35.9C2.16 35.9 3.15 36.15 4.03 36.65C4.93 37.15 5.65 38.17 6.19 39.71L10.21 51.29L13.42 41.78L12.7 39.71C12.3 38.55 11.87 37.76 11.41 37.34C10.97 36.9 10.3 36.64 9.4 36.56V35.96C9.5 35.96 9.64 35.95 9.82 35.93C10.02 35.91 10.22 35.9 10.42 35.9C11.52 35.9 12.51 36.15 13.39 36.65C14.29 37.15 15.01 38.17 15.55 39.71L19.57 51.29L24.7 36.2H25.99L19.12 56.3H18.52L14.08 43.67L9.76 56.3H9.16L3.34 39.71ZM29.3863 45.5C29.3863 44.48 29.2463 43.73 28.9663 43.25C28.6863 42.75 28.1263 42.5 27.2863 42.5H26.9863V41.9H29.3863C30.1463 41.9 30.7163 42.01 31.0963 42.23C31.4963 42.43 31.7763 42.77 31.9363 43.25H32.0863C32.4463 42.79 32.9263 42.4 33.5263 42.08C34.1463 41.76 34.8663 41.6 35.6863 41.6C36.4863 41.6 37.0863 41.75 37.4863 42.05C37.8263 42.31 38.1763 42.76 38.5363 43.4L37.3363 44.3C37.1163 44 36.7963 43.78 36.3763 43.64C35.9563 43.48 35.4763 43.4 34.9363 43.4C34.3363 43.4 33.7863 43.54 33.2863 43.82C32.7863 44.08 32.3863 44.44 32.0863 44.9V56H29.3863V45.5ZM42.6602 40.1C42.2002 40.1 41.8002 39.91 41.4602 39.53C41.1402 39.15 40.9802 38.7 40.9802 38.18C40.9802 37.76 41.1002 37.43 41.3402 37.19C41.6002 36.95 41.9402 36.83 42.3602 36.83C42.8202 36.83 43.2102 37.02 43.5302 37.4C43.8702 37.78 44.0402 38.23 44.0402 38.75C44.0402 39.17 43.9102 39.5 43.6502 39.74C43.4102 39.98 43.0802 40.1 42.6602 40.1ZM41.5202 45.5C41.5202 44.48 41.3802 43.73 41.1002 43.25C40.8202 42.75 40.2602 42.5 39.4202 42.5H38.8202V41.9H41.5202C42.2602 41.9 42.8102 42 43.1702 42.2C43.5502 42.38 43.8202 42.72 43.9802 43.22C44.1402 43.72 44.2202 44.48 44.2202 45.5V56H41.5202V45.5ZM52.623 56.3C51.503 56.3 50.623 55.98 49.983 55.34C49.343 54.7 49.023 53.72 49.023 52.4V43.1H46.923V41.9H49.023V39.2L50.523 37.4H51.723V41.9H55.323V43.1H51.723V52.4C51.723 54.2 52.423 55.1 53.823 55.1C54.303 55.1 54.703 55.05 55.023 54.95C55.363 54.85 55.713 54.7 56.073 54.5L56.373 55.1C55.913 55.44 55.403 55.73 54.843 55.97C54.283 56.19 53.543 56.3 52.623 56.3ZM64.0797 56.3C62.7197 56.3 61.5697 55.98 60.6297 55.34C59.6897 54.68 58.9797 53.8 58.4997 52.7C58.0197 51.58 57.7797 50.33 57.7797 48.95C57.7797 47.59 58.0197 46.35 58.4997 45.23C58.9797 44.11 59.6697 43.23 60.5697 42.59C61.4897 41.93 62.5597 41.6 63.7797 41.6C65.7997 41.6 67.2997 42.17 68.2797 43.31C69.2797 44.43 69.7797 46.06 69.7797 48.2L69.7197 49.4H60.6297C60.6297 51.08 60.9897 52.45 61.7097 53.51C62.4297 54.57 63.4197 55.1 64.6797 55.1C65.6197 55.1 66.4097 54.9 67.0497 54.5C67.7097 54.1 68.3197 53.5 68.8797 52.7L69.4797 53.15C68.8197 54.25 68.0497 55.05 67.1697 55.55C66.2897 56.05 65.2597 56.3 64.0797 56.3ZM66.9297 48.2C66.9297 46.44 66.6697 45.1 66.1497 44.18C65.6297 43.26 64.8397 42.8 63.7797 42.8C63.1797 42.8 62.6397 43.04 62.1597 43.52C61.6797 43.98 61.2997 44.62 61.0197 45.44C60.7597 46.26 60.6297 47.18 60.6297 48.2H66.9297Z" fill="#181818"/>
<path d="M81.3596 33.5333C89.2388 41.4435 91.2186 45.957 94.9796 54C95.1947 52.6274 93.6301 50.9532 94.0067 50.5888C83.0477 27.5337 72.0308 19.3952 45.8502 6.85351C67.1372 13.3491 85.9666 33.1679 82.454 29.5131C78.9415 25.8583 81.0135 23.4886 83.5485 19.8888C78.1084 15.3469 74.3846 12.6203 62.7536 6.85351C62.7201 8.75482 63.1734 9.78754 64.3345 11.6047C61.8869 9.83934 60.7323 8.41978 58.8622 5.51343C50.7842 3.79187 44.7417 1.69696 36 4.05156C41.8142 10.5801 48.8828 16 58.8622 23.0563C64.5798 23.8485 67.6471 24.3499 71.631 25.8583C70.0578 27.2192 68.344 27.4054 64.3345 27.0766C65.6368 28.9368 66.5509 30.0416 70.1717 32.6805C74.8864 33.8107 77.1785 33.7125 81.156 33.542L81.3596 33.5333Z" fill="url(#paint0_linear)"/>
<path fill-rule="evenodd" clip-rule="evenodd" d="M49.3758 3.49834C45.2094 2.81633 41.0562 2.68966 36 4.05156C38.7419 7.13036 41.7628 9.96261 45.2364 12.8362C45.4544 12.3221 45.6268 11.803 45.7158 11.2775C45.8441 10.5202 45.4592 9.64912 44.8708 9.15454C44.3013 8.67592 43.353 8.44594 42.4436 8.22542C41.0814 7.89506 39.8066 7.58593 40.0244 6.4939C40.2962 5.13101 42.0377 5.1147 43.7228 5.09893C44.4307 5.0923 45.1286 5.08576 45.7035 4.97952C46.1079 4.90477 46.5241 4.95059 46.9382 4.99618C47.4442 5.05188 47.947 5.10725 48.4215 4.94191C48.8576 4.78996 49.0635 4.28192 49.2422 3.84094C49.2573 3.80368 49.2722 3.7669 49.2871 3.73086C49.3186 3.65422 49.3481 3.57667 49.3758 3.49834ZM53.6531 19.3207C54.2331 19.7443 54.824 20.1725 55.4262 20.6063C56.5448 20.2723 57.8957 20.5324 59.2666 20.7963C60.9513 21.1206 62.6661 21.4508 64.0163 20.691C64.6502 20.3343 63.8957 19.4568 63.1642 18.606C62.4458 17.7704 61.7494 16.9606 62.4121 16.695C63.3595 16.3152 64.0983 17.1887 64.8726 18.1042C65.4041 18.7326 65.9523 19.3807 66.5962 19.657C66.8562 19.7685 67.0824 19.5382 67.3132 19.3031C67.4406 19.1735 67.5693 19.0424 67.7058 18.9666C67.7636 18.9345 67.8213 18.9028 67.8791 18.8715C66.1854 17.7392 64.3991 16.6268 62.5067 15.5172C62.5073 15.7733 62.3586 15.9342 61.9797 15.9592C60.3199 16.0687 58.8469 14.5088 57.4449 13.0241C57.223 12.7891 57.0029 12.556 56.7841 12.3318C55.6686 11.739 54.5197 11.1423 53.3356 10.5394C53.1565 10.5927 52.9767 10.6768 52.7958 10.7955C51.1649 11.8664 51.9256 13.9609 52.7291 16.1734C53.1122 17.2284 53.5051 18.3102 53.6531 19.3207ZM61.9585 14.1827C62.324 14.3989 62.6865 14.6165 63.0459 14.8351C62.8865 14.5184 62.8248 14.1804 62.9 13.8355C63.2028 12.4454 64.5295 11.5758 65.847 10.7122C66.5034 10.2819 67.1576 9.85311 67.6816 9.36219C66.7524 8.87393 65.7605 8.36334 64.6966 7.82571C64.3755 7.96113 64.0401 8.08537 63.7042 8.20985C63.4305 8.31124 63.1565 8.41278 62.8893 8.52064C63.0992 9.5271 63.559 10.3909 64.3345 11.6047C63.2014 10.7874 62.3454 10.0443 61.5672 9.19344C61.1501 9.4792 60.8055 9.82781 60.5842 10.2818C60.1606 11.1509 60.9661 12.507 61.6607 13.6762C61.7639 13.8499 61.8646 14.0195 61.9585 14.1827ZM68.6381 18.4767C67.7996 17.8952 66.9337 17.3106 66.0433 16.7279C66.2842 16.7668 66.5178 16.7817 66.7349 16.7694C67.9747 16.6993 68.9251 15.8439 69.8897 14.9758C70.6288 14.3107 71.3762 13.6381 72.2684 13.3054C73.1395 12.9806 74.188 13.2461 75.0021 13.6871C75.7795 14.1082 76.4981 15.0135 77.1928 15.8889C78.3034 17.2883 79.3532 18.611 80.4859 17.7563C80.5659 17.6959 80.6367 17.6326 80.6989 17.5664C81.6306 18.3001 82.5613 19.0646 83.5485 19.8888C83.3976 20.1031 83.2484 20.3129 83.1019 20.519L83.1014 20.5196C80.7864 23.7755 79.1507 26.076 82.454 29.5131L82.6023 29.6673C82.7907 29.8631 82.8807 29.9566 82.8784 29.959C82.8762 29.9612 82.7967 29.887 82.6444 29.7448L82.6441 29.7445L82.644 29.7444C81.9238 29.0722 79.5786 26.883 76.0872 24.0631C76.6478 23.854 77.2823 23.6941 77.9045 23.5373L77.9045 23.5373C79.6369 23.1006 81.2744 22.6879 80.9613 21.3039C80.6525 19.9392 79.0785 19.9812 77.3993 20.0261C76.0901 20.061 74.717 20.0977 73.8297 19.4708C73.3717 19.1472 73.562 18.4028 73.7444 17.6893C73.9328 16.9522 74.1128 16.2481 73.5608 16.0753C72.573 15.766 71.6746 16.465 70.7724 17.167C70.3259 17.5144 69.8784 17.8626 69.4187 18.0896L69.2677 18.1641C69.0565 18.2683 68.8468 18.3717 68.6381 18.4767ZM81.3596 33.5333C89.004 41.2078 91.0954 45.685 94.6479 53.2902L94.9796 54C95.1001 53.231 94.662 52.3673 94.3196 51.6923C94.0509 51.1626 93.8411 50.7491 94.0067 50.5888C88.4345 38.8662 82.8473 31 75.2595 24.4506C75.1666 24.5067 75.0787 24.5658 74.9965 24.6283C74.2597 25.189 73.5864 26.0354 73.5241 26.963C73.4603 27.9131 73.7659 28.871 74.0682 29.8182C74.4626 31.0545 74.8513 32.2727 74.4052 33.4315L74.3927 33.4636C76.689 33.7335 78.5649 33.6531 81.156 33.542L81.3596 33.5333ZM68.4622 31.3918C68.2202 29.8924 67.9157 28.4557 66.7398 27.7424C66.1636 27.3929 65.6681 27.694 65.1833 28.2352C65.9491 29.2122 66.8228 30.1021 68.4622 31.3918Z" fill="url(#paint1_linear)"/>
<defs>
<linearGradient id="paint0_linear" x1="33.5" y1="-0.500002" x2="88" y2="54" gradientUnits="userSpaceOnUse">
<stop stop-color="#129BFF"/>
<stop offset="0.387017" stop-color="#FF0000" stop-opacity="0.49"/>
<stop offset="0.768904" stop-color="#FAFF00"/>
</linearGradient>
<linearGradient id="paint1_linear" x1="37" y1="3.5" x2="95" y2="52.5001" gradientUnits="userSpaceOnUse">
<stop offset="0.604167" stop-color="white" stop-opacity="0.16"/>
<stop offset="0.8125" stop-color="#DF0C0C"/>
</linearGradient>
</defs>
</svg>

<svg xmlns="http://www.w3.org/2000/svg" width="95" height="60" fill="none" viewBox="0 0 95 60">
  <path fill="#181818" d="M19.66 26.15c-.96 0-1.91-.26-2.85-.78-.94-.54-1.69-1.58-2.25-3.12l-.75-1.95h-8.4L3.01 26H1.66l8.4-19.8h.9l6.6 16.05c.5 1.16.97 1.96 1.41 2.4.44.42 1.07.67 1.89.75v.6c-.36.1-.76.15-1.2.15zm-6.45-7.05l-3.6-8.7-3.75 8.7h7.35zm9.113-9.3c0-1.02-.14-1.77-.42-2.25-.28-.5-.84-.75-1.68-.75h-.6v-.6h2.7c.74 0 1.29.1 1.65.3.38.18.65.52.81 1.02.16.5.24 1.26.24 2.28V26h-2.7V9.8zm7.266 0c0-1.02-.14-1.77-.42-2.25-.28-.5-.84-.75-1.68-.75h-.6v-.6h2.7c.74 0 1.29.1 1.65.3.38.18.65.52.81 1.02.16.5.24 1.26.24 2.28V26h-2.7V9.8zM3.34 39.71c-.4-1.16-.83-1.95-1.29-2.37-.44-.44-1.11-.7-2.01-.78v-.6c.1 0 .25-.01.45-.03.18-.02.37-.03.57-.03 1.1 0 2.09.25 2.97.75.9.5 1.62 1.52 2.16 3.06l4.02 11.58 3.21-9.51-.72-2.07c-.4-1.16-.83-1.95-1.29-2.37-.44-.44-1.11-.7-2.01-.78v-.6c.1 0 .24-.01.42-.03.2-.02.4-.03.6-.03 1.1 0 2.09.25 2.97.75.9.5 1.62 1.52 2.16 3.06l4.02 11.58L24.7 36.2h1.29l-6.87 20.1h-.6l-4.44-12.63L9.76 56.3h-.6L3.34 39.71zm26.046 5.79c0-1.02-.14-1.77-.42-2.25-.28-.5-.84-.75-1.68-.75h-.3v-.6h2.4c.76 0 1.33.11 1.71.33.4.2.68.54.84 1.02h.15c.36-.46.84-.85 1.44-1.17.62-.32 1.34-.48 2.16-.48.8 0 1.4.15 1.8.45.34.26.69.71 1.05 1.35l-1.2.9c-.22-.3-.54-.52-.96-.66-.42-.16-.9-.24-1.44-.24-.6 0-1.15.14-1.65.42-.5.26-.9.62-1.2 1.08V56h-2.7V45.5zm13.274-5.4c-.46 0-.86-.19-1.2-.57a2.03 2.03 0 01-.48-1.35c0-.42.12-.75.36-.99.26-.24.6-.36 1.02-.36.46 0 .85.19 1.17.57.34.38.51.83.51 1.35 0 .42-.13.75-.39.99-.24.24-.57.36-.99.36zm-1.14 5.4c0-1.02-.14-1.77-.42-2.25-.28-.5-.84-.75-1.68-.75h-.6v-.6h2.7c.74 0 1.29.1 1.65.3.38.18.65.52.81 1.02.16.5.24 1.26.24 2.28V56h-2.7V45.5zm11.103 10.8c-1.12 0-2-.32-2.64-.96-.64-.64-.96-1.62-.96-2.94v-9.3h-2.1v-1.2h2.1v-2.7l1.5-1.8h1.2v4.5h3.6v1.2h-3.6v9.3c0 1.8.7 2.7 2.1 2.7.48 0 .88-.05 1.2-.15.34-.1.69-.25 1.05-.45l.3.6c-.46.34-.97.63-1.53.87-.56.22-1.3.33-2.22.33zm11.457 0c-1.36 0-2.51-.32-3.45-.96-.94-.66-1.65-1.54-2.13-2.64-.48-1.12-.72-2.37-.72-3.75 0-1.36.24-2.6.72-3.72s1.17-2 2.07-2.64c.92-.66 1.99-.99 3.21-.99 2.02 0 3.52.57 4.5 1.71 1 1.12 1.5 2.75 1.5 4.89l-.06 1.2h-9.09c0 1.68.36 3.05 1.08 4.11.72 1.06 1.71 1.59 2.97 1.59.94 0 1.73-.2 2.37-.6.66-.4 1.27-1 1.83-1.8l.6.45c-.66 1.1-1.43 1.9-2.31 2.4-.88.5-1.91.75-3.09.75zm2.85-8.1c0-1.76-.26-3.1-.78-4.02-.52-.92-1.31-1.38-2.37-1.38-.6 0-1.14.24-1.62.72-.48.46-.86 1.1-1.14 1.92-.26.82-.39 1.74-.39 2.76h6.3z"/>
  <path fill="url(#paint0_linear)" d="M81.36 33.533c7.879 7.91 9.859 12.424 13.62 20.467.215-1.373-1.35-3.047-.973-3.411C83.047 27.534 72.03 19.395 45.85 6.854c21.287 6.495 40.117 26.314 36.604 22.66-3.512-3.656-1.44-6.025 1.095-9.625-5.44-4.542-9.164-7.269-20.795-13.035-.034 1.9.42 2.934 1.58 4.75-2.447-1.765-3.602-3.184-5.472-6.09C50.784 3.791 44.742 1.696 36 4.051 41.814 10.58 48.883 16 58.862 23.056c5.718.793 8.785 1.294 12.769 2.802-1.573 1.361-3.287 1.547-7.296 1.219 1.302 1.86 2.216 2.965 5.837 5.604 4.714 1.13 7.007 1.032 10.984.861l.204-.009z"/>
  <path fill="url(#paint1_linear)" fill-rule="evenodd" d="M49.376 3.498c-4.167-.682-8.32-.808-13.376.554 2.742 3.078 5.763 5.91 9.236 8.784.218-.514.39-1.033.48-1.559.128-.757-.257-1.628-.845-2.122-.57-.48-1.518-.71-2.427-.93-1.363-.33-2.637-.64-2.42-1.731.272-1.363 2.014-1.38 3.699-1.395.708-.007 1.406-.013 1.98-.12.405-.074.821-.028 1.235.017.506.056 1.009.111 1.483-.054.437-.152.642-.66.821-1.101l.045-.11c.032-.077.061-.154.089-.233zm4.277 15.823c.58.423 1.171.851 1.773 1.285 1.119-.334 2.47-.074 3.84.19 1.685.325 3.4.655 4.75-.105.634-.357-.12-1.234-.852-2.085-.718-.836-1.415-1.645-.752-1.911.947-.38 1.686.494 2.46 1.41.532.628 1.08 1.276 1.724 1.552.26.111.486-.119.717-.354.128-.13.256-.26.393-.336l.173-.095a107.397 107.397 0 00-5.372-3.355c0 .256-.148.417-.527.442-1.66.11-3.133-1.45-4.535-2.935-.222-.235-.442-.468-.66-.692a222.011 222.011 0 00-3.45-1.793c-.178.054-.358.138-.54.257-1.63 1.07-.87 3.165-.066 5.377.383 1.055.776 2.137.924 3.148zm8.306-5.138c.365.216.727.434 1.087.652a1.484 1.484 0 01-.146-1c.303-1.39 1.63-2.26 2.947-3.123.656-.43 1.31-.859 1.835-1.35-.93-.488-1.922-.999-2.985-1.536-.322.135-.657.26-.993.384-.273.101-.547.203-.815.31.21 1.007.67 1.87 1.446 3.085-1.134-.818-1.99-1.56-2.768-2.412-.417.286-.761.635-.983 1.089-.423.869.382 2.225 1.077 3.394.103.174.204.344.297.507zm6.68 4.294a116.51 116.51 0 00-2.596-1.75c.241.04.475.055.692.042 1.24-.07 2.19-.925 3.155-1.793.739-.665 1.486-1.338 2.378-1.67.871-.325 1.92-.06 2.734.381.778.421 1.496 1.327 2.19 2.202 1.111 1.4 2.161 2.722 3.294 1.867.08-.06.15-.123.213-.19.932.734 1.862 1.499 2.85 2.323l-.447.63c-2.316 3.257-3.951 5.557-.648 8.994l.148.154c.189.196.279.29.276.292a4.924 4.924 0 01-.234-.214c-.72-.673-3.065-2.862-6.557-5.682.56-.209 1.195-.369 1.817-.526 1.733-.436 3.37-.85 3.057-2.233-.308-1.365-1.882-1.323-3.562-1.278-1.309.035-2.682.072-3.57-.555-.457-.324-.267-1.068-.085-1.782.189-.737.369-1.44-.183-1.614-.988-.309-1.886.39-2.789 1.092-.446.347-.894.696-1.353.923l-.151.074c-.212.104-.421.208-.63.313zm12.72 15.056c7.645 7.675 9.736 12.152 13.289 19.757l.332.71c.12-.769-.318-1.633-.66-2.308-.27-.53-.479-.943-.313-1.103C88.434 38.866 82.847 31 75.259 24.45c-.092.056-.18.115-.263.177-.736.561-1.41 1.407-1.472 2.335-.064.95.242 1.908.544 2.855.395 1.236.783 2.455.337 3.613l-.012.033c2.296.27 4.172.19 6.763.078l.204-.009zm-12.897-2.141c-.242-1.5-.546-2.936-1.722-3.65-.576-.35-1.072-.048-1.557.493.766.977 1.64 1.867 3.28 3.157z" clip-rule="evenodd"/>
  <defs>
    <linearGradient id="paint0_linear" x1="33.5" x2="88" y1="-.5" y2="54" gradientUnits="userSpaceOnUse">
      <stop stop-color="#129BFF"/>
      <stop offset=".387" stop-color="red" stop-opacity=".49"/>
      <stop offset=".769" stop-color="#FAFF00"/>
    </linearGradient>
    <linearGradient id="paint1_linear" x1="37" x2="95" y1="3.5" y2="52.5" gradientUnits="userSpaceOnUse">
      <stop offset=".604" stop-color="#fff" stop-opacity=".16"/>
      <stop offset=".813" stop-color="#DF0C0C"/>
    </linearGradient>
  </defs>
</svg>
